X:18
T:Sergt Early's Dream
R:reel
B:O'Neills Collection in A minor
D:i.Christy Barry, Connor McCarthy-Late in the Night, ii.Kathleen Collins
S:Clare FM
Z:psc -  http://www.cranfordpub.com
L:1/8
Q:333
M:C|
K:Ddor
dc|ADDE FAcA|GECD E2 EF|DA,DE FEFG|Acde fedc|
A2 DE FAcA|G2 CD EDEF|DA,DE FAcA|GECE D3 A,|
A,2 DE FAcA|GECD E2 EF|DA,DE FEFG|Acde fedc|
A2 DE FAcA|GECD E2FE|DA,DE FAcA|GECE D2||
||(3(EFG)|:Addc d2 Ad|fAed cAGF|ECEG cBcd|eceB cABc|
Addc d2 de|f2 ed cAFA|GE ~E2 cE ~E2|[1EDCE DEFG:|[2EDCE D2|]
